style-guide/assets/xd-icons-clipboard-small.svg

<?xml version="1.0" encoding="UTF-8"?>
<svg width="18px" height="18px" viewBox="0 0 18 18" version="1.1" xmlns="http://www.w3.org/2000/svg" xmlns:xlink="http://www.w3.org/1999/xlink">
    <!-- Generator: Sketch 51.3 (57544) - http://www.bohemiancoding.com/sketch -->
    <title>clipboard</title>
    <desc>Created with Sketch.</desc>
    <defs></defs>
    <g id="clipboard" stroke="none" stroke-width="1" fill="none" fill-rule="evenodd">
        <path d="M12,4 C12,4.55228475 11.5522847,5 11,5 L7,5 C6.44771525,5 6,4.55228475 6,4 L3,4 L3,15 L15,15 L15,4 L12,4 Z M12,2 L16,2 C16.5522847,2 17,2.44771525 17,3 L17,16 C17,16.5522847 16.5522847,17 16,17 L2,17 C1.44771525,17 1,16.5522847 1,16 L1,3 C1,2.44771525 1.44771525,2 2,2 L6,2 C6,1.44771525 6.44771525,1 7,1 L11,1 C11.5522847,1 12,1.44771525 12,2 Z M8,10.5857864 L11.2928932,7.29289322 C11.6834175,6.90236893 12.3165825,6.90236893 12.7071068,7.29289322 C13.0976311,7.68341751 13.0976311,8.31658249 12.7071068,8.70710678 L8.70710678,12.7071068 C8.31658249,13.0976311 7.68341751,13.0976311 7.29289322,12.7071068 L5.29289322,10.7071068 C4.90236893,10.3165825 4.90236893,9.68341751 5.29289322,9.29289322 C5.68341751,8.90236893 6.31658249,8.90236893 6.70710678,9.29289322 L8,10.5857864 Z" id="Stroke-2" fill="#000000" fill-rule="nonzero"></path>
    </g>
</svg>

<svg viewBox="0 0 18 18" xmlns="http://www.w3.org/2000/svg">
  <path d="M12 4a1 1 0 0 1-1 1H7a1 1 0 0 1-1-1H3v11h12V4h-3zm0-2h4a1 1 0 0 1 1 1v13a1 1 0 0 1-1 1H2a1 1 0 0 1-1-1V3a1 1 0 0 1 1-1h4a1 1 0 0 1 1-1h4a1 1 0 0 1 1 1zm-4 8.586l3.293-3.293a1 1 0 0 1 1.414 1.414l-4 4a1 1 0 0 1-1.414 0l-2-2a1 1 0 0 1 1.414-1.414L8 10.586z" fill="#000" fill-rule="nonzero"/>
</svg>
